X:164
T:RVW2/2/164 The Jolly Thresherman
C:Mr. Earle, Leith Hill, Surrey, September / October 1904
L:1/4
Q:1/4=120
M:4/4
I:linebreak $
K:G
"^(Editorial suggestion " A | D D D D | c B c A | G F D C | D3 D |$ G G G A | d d e d | c A d B | 
w: It's|of a jol- ly|thresh- er- man who|lived by the sea|side who|for his wife and|fa- mi- ly he|dail- y did pro-|
A3 D |$ (G F) G A | d2 e d | c A d c | A3 D |$ D D D D | c B c A | (G F) (D C) | D3 |] 
w: vide he|had _ sev- en|chil- dren and|most of them were|small and|no- thing but hard|la- bour to main-|tain _ them _|all.|


